src/icons/svg/SortAlpha.svg

<!-- Generated by IcoMoon.io -->
<svg version="1.1" xmlns="http://www.w3.org/2000/svg" width="25" height="24" viewBox="0 0 25 24">
<title>sort-alpha</title>
<path fill="#444" d="M16.43 2.907h-5.813l2.907-2.907 2.907 2.907zM10.654 21.023h5.739l-2.87 2.87-2.87-2.87zM5.542 4.889l-5.542 14.114h2.266l1.133-3.017h6.294l1.133 3.017h2.266l-5.53-14.114h-2.020zM4.151 13.966l2.389-6.38 2.389 6.38h-4.779zM17.403 17.045h7.538v1.958h-10.506v-1.589l7.291-10.542h-7.242v-1.971h10.223v1.552l-7.304 10.592z"></path>
</svg>

<svg width="25" height="24" viewBox="0 0 25 24" fill="none" xmlns="http://www.w3.org/2000/svg">
<path d="M16.43 2.907H10.617L13.524 0L16.431 2.907H16.43ZM10.654 21.023H16.393L13.523 23.893L10.653 21.023H10.654ZM5.542 4.889L0 19.003H2.266L3.399 15.986H9.693L10.826 19.003H13.092L7.562 4.889H5.542V4.889ZM4.151 13.966L6.54 7.586L8.929 13.966H4.15H4.151ZM17.403 17.045H24.941V19.003H14.435V17.414L21.726 6.872H14.484V4.901H24.707V6.453L17.403 17.045Z" fill="#1C2125"/>
</svg>
